!!!COM: Felix Mendelssohn
!!!CNT: Deutsch
!!!TXO: Deutsch
!!!OTL: An die Entfernte
!!!LYR: Lenau
!!!OPS: Op. 71
!!!ONM: No. 3
!!!ENC: Daniel Alt & Leigh VanHandel
!!!YOR: Sa2mmtliche Lieder fu2r eine Singstimme 
!!!YOR: Neu revidirt von Dr. L. Benda, Ausgabe fu2r mittlere Stimme
!!!YOR: Braunschweig. Henry Litolff's Verlag. Boston and New York: Arthur P. Schmidt.
!!!ODT: 1847/
**kern	**silbe
*staff1	*
=1-	=1
*clefG2	*
*k[f#]	*
*M2/4	*
{8.d	{Die-
16g	se
8g	Ro-
8f#	-se
=2	=2
8g	pflu2ck'
8b	ich
4dd	hier
=3	=3
8.dd	in
16b	der
8b	wei-
8g	-ten
=4	=4
8.g	Fer-
16e	|
4e}	-ne,}
=5	=5
{8.e	{lie-
16e	-bes
8f#	Ma2d-
8g#	-chen,
=6	=6
8a	dir,
8b	ach
4cc	dir,
=7	=7
8.cc	bra2cht'
16d	ich
8d	sie
8b	so
=8	=8
4a	ger-
4g}	-ne!}
=9	=9
2r	.
=10	=10
2r	.
=11	=11
{8.d	{Nie
16g	soll
8g	weit-
8f#	-er
=12	=12
8g	sich
8b	in’s
4dd	Land
=13	=13
8.dd	Lieb'
16b	von
8b	Lie-
8g	-be
=14	=14
8.g	wa-
16e	|
4e}	-gen,}
=15	=15
{8.e	{als
16e	sich
8f#	blu2-
8g#	-hend
=16	=16
8a	in
8b	der
4cc	Hand
=17	=17
8.cc	la2sst
16d	die
8d	Ro-
8d	-se
=18	=18
4e	tra-
4d}	-gen;}
=19	=19
{8.cc	{o-
16d	-der
8d	als
8d	die
=20	=20
8.b	Nacht-
16a	-i-
4g	-gall
=21	=21
8.g	Hal-
16e	-me
8e	bringt
8e	zum
=22	=22
8.g	Ne-
16e	|
4e}	-ste,}
=23	=23
{8d	o-
8d	-der
8f#	als
8a	ihr
=24	=24
4dd	su2-
4cc#	sser
=25	=25
2cc}	Schall}
=26	=26
{8.cc	{wand-
16d	-ert
8d	mit
8b	dem
=27	=27
4a	We-
4g}	-ste.}
==	==
*-	*-
